public/icons/x.svg

<svg width="18" height="18" viewBox="0 0 18 18" fill="none" xmlns="http://www.w3.org/2000/svg">
<rect width="18" height="18" rx="4" fill="white"/>
<path d="M12.4478 4.16516H14.1609L10.4183 8.44266L14.8211 14.2634H11.3738L8.67366 10.7331L5.58413 14.2634H3.87002L7.87306 9.68811L3.64941 4.16516H7.18431L9.62497 7.39193L12.4478 4.16516ZM11.8466 13.238H12.7958L6.66852 5.13666H5.6499L11.8466 13.238Z" fill="#10294C"/>
</svg>

<?xml version="1.0" encoding="UTF-8"?>
<svg id="Layer_1" xmlns="http://www.w3.org/2000/svg" version="1.1" viewBox="0 0 18 18">
  <!-- Generator: Adobe Illustrator 30.1.0, SVG Export Plug-In . SVG Version: 2.1.1 Build 136)  -->
  <defs>
    <style>
      .st0 {
        fill: #fff;
      }
    </style>
  </defs>
  <polygon class="st0" points="5.65 5.14 11.85 13.24 12.8 13.24 6.67 5.14 5.65 5.14"/>
  <path class="st0" d="M14,0H4C1.79,0,0,1.79,0,4v10c0,2.21,1.79,4,4,4h10c2.21,0,4-1.79,4-4V4c0-2.21-1.79-4-4-4ZM11.37,14.26l-2.7-3.53-3.09,3.53h-1.71l4-4.58L3.65,4.17h3.53l2.44,3.23,2.82-3.23h1.71l-3.74,4.28,4.4,5.82h-3.45Z"/>
</svg>
